src/assets/duotone/Eraser.svg

<svg width="24" height="24" viewBox="0 0 24 24"  xmlns="http://www.w3.org/2000/svg">
<path d="M21.0303 22H13.9902C13.5702 22 13.2402 21.66 13.2402 21.25C13.2402 20.84 13.5802 20.5 13.9902 20.5H21.0303C21.4503 20.5 21.7803 20.84 21.7803 21.25C21.7803 21.66 21.4503 22 21.0303 22Z" />
<path opacity="0.4" d="M15.41 16.3401L10.66 21.0901C9.54997 22.2001 7.77002 22.2601 6.59002 21.2701C6.52002 21.2101 6.46002 21.1501 6.40002 21.0901L5.53003 20.2201L3.73999 18.4301L2.88 17.5701C2.81 17.5001 2.75 17.4301 2.69 17.3601C1.71 16.1801 1.78 14.4201 2.88 13.3201L6.57 9.64008L7.63 8.58008L15.41 16.3401Z" />
<path d="M21.1199 10.6399L15.4099 16.3399L7.62988 8.57994L13.3399 2.87994C14.5099 1.70994 16.4299 1.70994 17.5999 2.87994L21.1199 6.38994C22.2899 7.55994 22.2899 9.46994 21.1199 10.6399Z" />
</svg>

<?xml version="1.0" encoding="UTF-8"?>
<svg width="24" height="24" viewBox="0 0 24 24" xmlns="http://www.w3.org/2000/svg">
 <path d="m21.03 22h-7.0401c-0.42 0-0.75-0.34-0.75-0.75s0.34-0.75 0.75-0.75h7.0401c0.42 0 0.75 0.34 0.75 0.75s-0.33 0.75-0.75 0.75z"/>
 <path d="m15.41 16.34-4.75 4.75c-1.11 1.11-2.89 1.17-4.07 0.18-0.07-0.06-0.13-0.12-0.19-0.18l-2.66-2.66-0.85999-0.86c-0.07-0.07-0.13-0.14-0.19-0.21-0.98-1.18-0.91-2.94 0.19-4.04l3.69-3.68 1.06-1.06 7.78 7.76z" opacity=".4"/>
 <path d="m21.12 10.64-5.71 5.7-7.78-7.76 5.71-5.7c1.17-1.17 3.09-1.17 4.26 0l3.52 3.51c1.17 1.17 1.17 3.08 0 4.25z"/>
</svg>
